svgs/sharp-solid/shekel-sign.svg

<svg xmlns="http://www.w3.org/2000/svg" viewBox="0 0 448 512"><!--! Font Awesome Pro 6.6.0 by @fontawesome - https://fontawesome.com License - https://fontawesome.com/license (Commercial License) Copyright 2024 Fonticons, Inc. --><path d="M32 32L0 32 0 64 0 480l64 0L64 96l128 0c35.3 0 64 28.7 64 64l0 192 64 0 0-192c0-70.7-57.3-128-128-128L32 32zM320 480c70.7 0 128-57.3 128-128l0-320-64 0 0 320c0 35.3-28.7 64-64 64l-128 0 0-256-64 0 0 288 0 32 32 0 160 0z"/></svg>

<svg xmlns="http://www.w3.org/2000/svg" viewBox="0 0 448 512"><!--! Font Awesome Pro 6.4.2 by @fontawesome - https://fontawesome.com License - https://fontawesome.com/license (Commercial License) Copyright 2023 Fonticons, Inc. --><path d="M32 32H0V64 480H64V96H192c35.3 0 64 28.7 64 64V352h64V160c0-70.7-57.3-128-128-128H32zM320 480c70.7 0 128-57.3 128-128V32H384V352c0 35.3-28.7 64-64 64H192V160H128V448v32h32H320z"/></svg>
